X: 10271
T: JOHNNIE'S GREY BREEKS
Q: "Brisk"
%R: reel
B: "Edinburgh Repository of Music" v.1 p.27 #1
F: http://digital.nls.uk/special-collections-of-printed-music/pageturner.cfm?id=87776133
Z: 2015 John Chambers <jc:trillian.mit.edu>
M: 2/4
L: 1/16
K: D
d>e |\
f2f2 gfed | B4 d3A | {G}F2ED D3E | F2A2 A2de |\
f2f2 afed | B4 d3A | {G}F2ED E2F2 | d2B2B2 :|
|: dB |\
A3Bd3e | f4 e2d2 | e2f2 a2ba | f2e2e2fa |\
b2b2 d'baf | a2a2 bafe | d3b afef | d2B2B2 :|

%%sep 2 1 500
%%sep 1 1 500

